docs/src/assets/images/twig.svg

<svg width="325" height="360" viewBox="0 0 325 360" fill="none" xmlns="http://www.w3.org/2000/svg">
<circle cx="131.5" cy="131.5" r="131.5" fill="#54FFB9" fill-opacity="0.5"/>
<circle cx="231.5" cy="313.5" r="46.5" fill="#54FFB9" fill-opacity="0.5"/>
<path d="M166.93 44C135.694 44 105.16 53.2627 79.1878 70.6167C53.2162 87.9707 32.9739 112.637 21.0208 141.495C9.06777 170.354 5.94081 202.109 12.0354 232.744C18.13 263.38 33.1723 291.52 55.2603 313.607C77.3482 335.693 105.49 350.734 136.126 356.827C166.762 362.919 198.516 359.79 227.374 347.835C256.232 335.881 280.897 315.637 298.249 289.664C315.601 263.691 324.862 233.156 324.86 201.92C324.86 181.181 320.775 160.645 312.838 141.484C304.901 122.324 293.268 104.915 278.603 90.2502C263.938 75.5858 246.527 63.9537 227.367 56.0181C208.206 48.0824 187.669 43.9987 166.93 44ZM166.93 63.72C202.382 63.7103 236.482 77.3252 262.179 101.749C287.875 126.174 303.203 159.539 304.992 194.946C306.781 230.353 294.895 265.094 271.791 291.984C248.687 318.874 216.133 335.856 180.86 339.42V295.56H242.86L214.6 216.93H119.4L91.0801 295.56H153.03V339.43C117.76 335.867 85.208 318.886 62.1044 291.999C39.0008 265.113 27.1125 230.376 28.8975 194.971C30.6825 159.567 46.0043 126.202 71.6949 101.775C97.3856 77.3484 131.48 63.728 166.93 63.73V63.72ZM166.93 354.29C82.9301 354.29 14.5701 285.93 14.5701 201.92C14.5701 200.13 14.5701 198.35 14.6801 196.54C17.5901 198.49 20.4001 200.33 23.1601 202.1C23.0853 237.734 36.2927 272.118 60.2042 298.538C84.1157 324.959 117.015 341.52 152.48 344.99L155.63 345.3L158.63 345.6V289.97H99.0301L113.86 248.64C152.021 263.903 191.649 275.206 232.12 282.37L234.85 289.97H175.25V345.56L178.25 345.26L181.4 344.95C200.961 342.937 219.902 336.942 237.059 327.334C254.216 317.725 269.224 304.707 281.16 289.08C284.66 289.43 287.94 289.73 291.06 289.99C277.025 309.858 258.426 326.068 236.826 337.257C215.226 348.446 191.256 354.287 166.93 354.29Z" fill="#2A1468"/>
<path d="M166.94 80.14L104.49 214.22H106.24H155.49H178.38H229.38L166.94 80.14Z" fill="#2A1468"/>
<rect x="27" y="134" width="144" height="12" rx="6" fill="#2A1468"/>
<rect x="46" y="114" width="125" height="12" rx="6" fill="#2A1468"/>
<rect x="25" y="154" width="144" height="13" rx="6.5" fill="#2A1468"/>
<rect x="23" y="174" width="144" height="12" rx="6" fill="#2A1468"/>
</svg>

<svg xmlns="http://www.w3.org/2000/svg" width="325" height="360" fill="none" xmlns:v="https://vecta.io/nano"><g fill="#54ffb9"><circle cx="131.5" cy="131.5" r="131.5" fill-opacity=".5"/><circle cx="231.5" cy="313.5" r="46.5" fill-opacity=".5"/></g><g fill="#2a1468"><path d="M166.93 44a157.93 157.93 0 0 0-145.909 97.495 157.93 157.93 0 0 0 34.24 172.112 157.94 157.94 0 0 0 80.866 43.22c30.636 6.092 62.39 2.963 91.248-8.992a157.92 157.92 0 0 0 70.875-58.171c17.352-25.973 26.613-56.508 26.611-87.744a157.92 157.92 0 0 0-12.022-60.436c-7.937-19.16-19.57-36.569-34.235-51.234s-32.076-26.297-51.236-34.232S187.669 43.999 166.93 44zm0 19.72a138.2 138.2 0 0 1 138.062 131.226A138.2 138.2 0 0 1 180.86 339.42v-43.86h62l-28.26-78.63h-95.2l-28.32 78.63h61.95v43.87a138.2 138.2 0 0 1-81.335-237.655A138.2 138.2 0 0 1 166.93 63.73v-.01zm0 290.57c-84 0-152.36-68.36-152.36-152.37 0-1.79 0-3.57.11-5.38l8.48 5.56a143.27 143.27 0 0 0 129.32 142.89l3.15.31 3 .3v-55.63h-59.6l14.83-41.33c38.161 15.263 77.789 26.566 118.26 33.73l2.73 7.6h-59.6v55.59l3-.3 3.15-.31c19.561-2.013 38.502-8.008 55.659-17.616a144.09 144.09 0 0 0 44.101-38.254l9.9.91a152 152 0 0 1-124.13 64.3zm.01-274.15l-62.45 134.08h1.75 49.25 22.89 51L166.94 80.14z"/><rect x="27" y="134" width="144" height="12" rx="6"/><rect x="46" y="114" width="125" height="12" rx="6"/><rect x="25" y="154" width="144" height="13" rx="6.5"/><rect x="23" y="174" width="144" height="12" rx="6"/></g></svg>
